X: 1016
T: Hicaz Aranağme (Aydın)
C: ?
O: Turkey
F: http://compmusic.upf.edu/node/140
N: hicaz--aranagme--aydin--1--
N: makam= hicaz
N: form= aranagme
N: usul= aydin = 9/8
M: 9/8
L: 1/16
K: C _7/8B ^f ^c 
Q: 1/4=216
%%MIDI tuningsystem comma53
.A4 .A4 z4 d2c2 B2 | .A4.A4z4d2 c2d2  | \
w:  ARANAĞME  |   | 
.e4 .e4 z4 =f2e2 d2 | c4c4z4=f2 e2d2  | 
w:   |   | 
c3B A2c2 B2A2 ^G2A2 B2 | A4A2 A2A4A6  | \
w:   |   | 
.A4 .A4 z4 d2c2 B2 | .A4.A4z4d2 c2d2  | 
w:  ARANAĞME  |   | 
.e4 .e4 z4 =f2e2 d2 | c4c4z4=f2 e2d2  | \
w:   |   | 
c3B A2c2 B2A2 ^G2A2 B2 | 
w:   | 
A12z6  | |


